X: 28
T:Missa Gaudeamus / Agnus Dei
N: Derived from Jos0402e-Missa_Gaudeamus-Agnus.krn
C: Josquin des Prez
%%abc-version 2.0
%%abcx-abcm2ps-target-version 5.9.1 (29 Sep 2008)
%%abc-creator hum2abc beta
%%abcx-conversion-date 2019/02/12 16:15:39
%%abc-edited-by Jesse Rodin
%%abc-edited-by Jesse Rodin; Victoria Chang 2011/04/12
%%abcx-initial-encoding-date 2011/04/12/
%%humdrum-veritas 894142351
%%humdrum-veritas-data 3630640575
%%linebreak <none>
%%barnumbers 0
L: 1/4
M: 3/1
Q: 1/2=120
V: 1 clef=treble
V: 2 clef=treble
V: 3 clef=treble-8
V: 4 clef=treble-8
V: 5 clef=bass
K: C
[V:1] z12 | 
[V:2] z12 | 
[V:3] z12 | 
[V:4] z12 | 
[V:5] G,4A,4A,4 | 
[V:1] z12 | 
[V:2] z12 | 
[V:3] G4A4A4 | 
[V:4] z12 | 
[V:5] z2E,2F,3E,F,4 | 
[V:1] z12 | 
[V:2] z12 | 
[V:3] z2e2f2e2f4 | 
[V:4] z12 | 
[V:5] E,2C,2D,2E,4D,2 | 
[V:1] z12 | 
[V:2] z12 | 
[V:3] e2c2d2e4d2 | 
[V:4] z12 | 
[V:5] E,2F,4E,2F,4 | 
[V:1] z12 | 
[V:2] z12 | 
[V:3] e2c2d2e2f4 | 
[V:4] G4A4A4 | 
[V:5] E,4D,2C,2D,4 | 
[V:1] G4A4A4 | 
[V:2] z12 | 
[V:3] e4d2c2d4 | 
[V:4] z2e2f2e2f4 | 
[V:5] E,4z4z4 | 
[V:1] z2e2f2e2f4 | 
[V:2] z12 | 
[V:3] A4z4d4 | 
[V:4] e2c2d2e4d2 | 
[V:5] z12 | 
[V:1] e2c2d2e4d2 | 
[V:2] z12 | 
[V:3] c2A2B2c2d4 | 
[V:4] e2f4e2f4 | 
[V:5] z4z4D,4 | 
[V:1] e8z2G2 | 
[V:2] z12 | 
[V:3] c3B/A/B2A2e4 | 
[V:4] e8z4 | 
[V:5] A,4G,2A,3G,E,2 | 
[V:1] A2G2A2B2c2B2 | 
[V:2] z12 | 
[V:3] A2e2d2B2e4 | 
[V:4] z12 | 
[V:5] F,2E,2F,2G,2C,2G,2- | 
[V:1] d2G2A2G2A2B2 | 
[V:2] z12 | 
[V:3] d2e2A2e2d3B | 
[V:4] z12 | 
[V:5] G,2E,2F,2E,2F,2G,2 | 
[V:1] c2B2d2c3BA2- | 
[V:2] z12 | 
[V:3] e2d2f3ec2d2 | 
[V:4] z12 | 
[V:5] E,2G,2F,2A,4D,2 | 
[V:1] A2G2A2G2z2G2 | 
[V:2] z12 | 
[V:3] B4c2B2z2B2 | 
[V:4] e12- | 
[V:5] E,4A,,2E,2z2E,2 | 
[V:1] A2G2A2B2G3E | 
[V:2] z12 | 
[V:3] c2B2c2B2B4 | 
[V:4] e12 | 
[V:5] A,,2E,2A,,2E,3F,G,2 | 
[V:1] E2c2A2c3BA2 | 
[V:2] z12 | 
[V:3] c12 | 
[V:4] e12- | 
[V:5] A,6A,,2A,,4 | 
[V:1] G12 | 
[V:2] z12 | 
[V:3] B3AB2c2G2c2 | 
[V:4] e12 | 
[V:5] E,6C,2C,4 | 
[V:1] z12 | 
[V:2] z12 | 
[V:3] B2G2A2_B3AF2 | 
[V:4] d12- | 
[V:5] G,4F,2G,3F,D,2 | 
[V:1] z12 | 
[V:2] z12 | 
[V:3] G2_B4A4G2 | 
[V:4] d8c4 | 
[V:5] _B,3A,G,2F,2E,4 | 
[V:1] z12 | 
[V:2] z12 | 
[V:3] A2_B3A_B2G2_B2 | 
[V:4] d12- | 
[V:5] D,2G,3F,G,A,_B,2G,2 | 
[V:1] z12 | 
[V:2] z12 | 
[V:3] A2B3cd2G2d2 | 
[V:4] d12 | 
[V:5] D,2G,3A,B,CD2B,2 | 
[V:1] z4z4d4 | 
[V:2] z12 | 
[V:3] e3dB2c4B2 | 
[V:4] g8f4 | 
[V:5] C2G,4E,2D,4 | 
[V:1] e3dB2c4B2 | 
[V:2] z12 | 
[V:3] c3BG2A2G2g2- | 
[V:4] e4d2c2d4 | 
[V:5] C,4z4G,4 | 
[V:1] c6B2A4 | 
[V:2] z12 | 
[V:3] g2c2A2B2c4- | 
[V:4] e8f4 | 
[V:5] E,2A,4G,2F,3E, | 
[V:1] G2A4G2FED2 | 
[V:2] z12 | 
[V:3] c4z4z2d2 | 
[V:4] e2f4e2f4 | 
[V:5] C,2F,4G,2A,2B,2 | 
[V:1] C4z2G2ABc2 | 
[V:2] z12 | 
[V:3] e2g3fedcBA2 | 
[V:4] e12- | 
[V:5] C2C,2C3B,A,G,A,2 | 
[V:1] BGA2BAGFEDCB, | 
[V:2] z12 | 
[V:3] G2c2z2g3fed | 
[V:4] e12- | 
[V:5] E,2A,2G,F,E,D,C,4 | 
[V:1] A,2c3BA4^G2 | 
[V:2] z12 | 
[V:3] cBAGA2c2B4 | 
[V:4] e12- | 
[V:5] C3B,A,G,A,2E,4 | 
[V:1] A12 ||  
[V:2] z12 ||  
[V:3] A12 ||  
[V:4] e12 ||  
[V:5] A,,12 ||  
[V:1]  [K:C] [K:clef=treble][M:2/1]E4G4- | 
[V:2]  [K:C] [K:clef=treble][M:2/1]z8 | 
[V:3]  [K:C] [K:clef=treble-8][M:2/1]z8 | 
[V:4]  [K:C] [K:clef=treble-8][M:2/1]z8 | 
[V:5]  [K:C] [K:clef=bass][M:2/1]z8 | 
[V:1] G2A2B2c2- | 
[V:2] z8 | 
[V:3] z8 | 
[V:4] z8 | 
[V:5] z8 | 
[V:1] c2BAB4 | 
[V:2] E4G4- | 
[V:3] z8 | 
[V:4] z8 | 
[V:5] z8 | 
[V:1] E8- | 
[V:2] G2A2B2c2- | 
[V:3] z8 | 
[V:4] z8 | 
[V:5] z8 | 
[V:1] E8 | 
[V:2] c2BAB4 | 
[V:3] z8 | 
[V:4] z8 | 
[V:5] z8 | 
[V:1] B4c2B2- | 
[V:2] E8- | 
[V:3] z8 | 
[V:4] z8 | 
[V:5] z8 | 
[V:1] B2G2G4 | 
[V:2] E8 | 
[V:3] z8 | 
[V:4] z8 | 
[V:5] z8 | 
[V:1] z2G2C2G2- | 
[V:2] B4c2B2- | 
[V:3] z8 | 
[V:4] z8 | 
[V:5] z8 | 
[V:1] G2E2E4 | 
[V:2] B2G2G4 | 
[V:3] z8 | 
[V:4] z8 | 
[V:5] z8 | 
[V:1] B4c2B2- | 
[V:2] z2G2C2G2- | 
[V:3] z8 | 
[V:4] z8 | 
[V:5] z8 | 
[V:1] BAB2c2B2 | 
[V:2] G2E2E4 | 
[V:3] z8 | 
[V:4] z8 | 
[V:5] z8 | 
[V:1] G4z4 | 
[V:2] B4c2B2- | 
[V:3] z8 | 
[V:4] z8 | 
[V:5] z8 | 
[V:1] d4e2d2- | 
[V:2] BAB2c2B2 | 
[V:3] z8 | 
[V:4] z8 | 
[V:5] z8 | 
[V:1] dcd2e2d2- | 
[V:2] G4z4 | 
[V:3] z8 | 
[V:4] z8 | 
[V:5] z8 | 
[V:1] d2cBc2d2 | 
[V:2] d4e2d2- | 
[V:3] z8 | 
[V:4] z8 | 
[V:5] z8 | 
[V:1] G4z4 | 
[V:2] dcd2e2d2- | 
[V:3] z8 | 
[V:4] z8 | 
[V:5] z8 | 
[V:1] d4e2d2- | 
[V:2] d2cBc2d2 | 
[V:3] z8 | 
[V:4] z8 | 
[V:5] z8 | 
[V:1] d2cBc2d2 | 
[V:2] G4z4 | 
[V:3] z8 | 
[V:4] z8 | 
[V:5] z8 | 
[V:1] G6F2 | 
[V:2] d4e2d2- | 
[V:3] z8 | 
[V:4] z8 | 
[V:5] z8 | 
[V:1] G4A2G2- | 
[V:2] d2cBc2d2 | 
[V:3] z8 | 
[V:4] z8 | 
[V:5] z8 | 
[V:1] GFE4D2 | 
[V:2] G6F2 | 
[V:3] z8 | 
[V:4] z8 | 
[V:5] z8 | 
[V:1] E2B2c2B2 | 
[V:2] G4A2G2- | 
[V:3] z8 | 
[V:4] z8 | 
[V:5] z8 | 
[V:1] E4F4 | 
[V:2] GFE4D2 | 
[V:3] z8 | 
[V:4] z8 | 
[V:5] z8 | 
[V:1] E2G2C2G2- | 
[V:2] E2B2c2B2 | 
[V:3] z8 | 
[V:4] z8 | 
[V:5] z8 | 
[V:1] G2FED4 | 
[V:2] E4F4 | 
[V:3] z8 | 
[V:4] z8 | 
[V:5] z8 | 
[V:1] C4G4- | 
[V:2] E2G2C2G2- | 
[V:3] z8 | 
[V:4] z8 | 
[V:5] z8 | 
[V:1] G2A2B4 | 
[V:2] G2FED4 | 
[V:3] z8 | 
[V:4] z8 | 
[V:5] z8 | 
[V:1] c4B4 | 
[V:2] C4G4- | 
[V:3] z8 | 
[V:4] z8 | 
[V:5] z8 | 
[V:1] E2F2G2E2- | 
[V:2] G2A2B4 | 
[V:3] z8 | 
[V:4] z8 | 
[V:5] z8 | 
[V:1] E2C2D2E2- | 
[V:2] c4B4 | 
[V:3] z8 | 
[V:4] z8 | 
[V:5] z8 | 
[V:1] ECD2E4 | 
[V:2] E2F2G2E2- | 
[V:3] z8 | 
[V:4] z8 | 
[V:5] z8 | 
[V:1] A,2E2F2G2 | 
[V:2] E2C2D2E2- | 
[V:3] z8 | 
[V:4] z8 | 
[V:5] z8 | 
[V:1] E2A4G2 | 
[V:2] ECD2E4 | 
[V:3] z8 | 
[V:4] z8 | 
[V:5] z8 | 
[V:1] c6B2 | 
[V:2] A,2E2F2G2 | 
[V:3] z8 | 
[V:4] z8 | 
[V:5] z8 | 
[V:1] c3Bc2B2- | 
[V:2] E2A4G2 | 
[V:3] z8 | 
[V:4] z8 | 
[V:5] z8 | 
[V:1] BAA4G2 | 
[V:2] c6B2 | 
[V:3] z8 | 
[V:4] z8 | 
[V:5] z8 | 
[V:1] (3A2F2G2(3E2C2D2 | 
[V:2] c3Bc2B2- | 
[V:3] z8 | 
[V:4] z8 | 
[V:5] z8 | 
[V:1] (3:2:4E4C2D2B,4 | 
[V:2] BAA4^G2 | 
[V:3] z8 | 
[V:4] z8 | 
[V:5] z8 | 
[V:1] A,8 ||  
[V:2] A8 ||  
[V:3] z8 ||  
[V:4] z8 ||  
[V:5] z8 ||  
[V:1]  [K:C] [K:clef=treble][M:2/1]z8 | 
[V:2]  [K:C] [K:clef=treble][M:2/1]z8 | 
[V:3]  [K:C] [K:clef=treble-8][M:2/1]z4B4 | 
[V:4]  [K:C] [K:clef=treble-8][M:2/1]G8 | 
[V:5]  [K:C] [K:clef=bass][M:2/1]E,4G,4 | 
[V:1] z8 | 
[V:2] z8 | 
[V:3] d4c2A2 | 
[V:4] A4A4 | 
[V:5] F,2D,2F,4 | 
[V:1] z8 | 
[V:2] z8 | 
[V:3] c4B4 | 
[V:4] e8 | 
[V:5] E,4G,4 | 
[V:1] z8 | 
[V:2] z8 | 
[V:3] d4c2A2 | 
[V:4] f8 | 
[V:5] F,2D,2F,3E, | 
[V:1] z8 | 
[V:2] z8 | 
[V:3] c3BG3A | 
[V:4] e8 | 
[V:5] C,3D,E,F,G,2- | 
[V:1] z8 | 
[V:2] z8 | 
[V:3] Bcd2c2g2- | 
[V:4] z8 | 
[V:5] G,2F,2A,2E,2 | 
[V:1] z8 | 
[V:2] z8 | 
[V:3] gfe4d2 | 
[V:4] z8 | 
[V:5] G,2A,2F,4 | 
[V:1] B8 | 
[V:2] z8 | 
[V:3] e8 | 
[V:4] G8 | 
[V:5] E,8 | 
[V:1] c6BA | 
[V:2] z8 | 
[V:3] z8 | 
[V:4] A4A4 | 
[V:5] z8 | 
[V:1] c2B2e4- | 
[V:2] z8 | 
[V:3] z8 | 
[V:4] e8 | 
[V:5] z8 | 
[V:1] e4d4 | 
[V:2] z8 | 
[V:3] z8 | 
[V:4] f8 | 
[V:5] z8 | 
[V:1] e8 | 
[V:2] z8 | 
[V:3] z4e4 | 
[V:4] e8 | 
[V:5] C,8 | 
[V:1] A4d4- | 
[V:2] z8 | 
[V:3] f6ed | 
[V:4] z8 | 
[V:5] D,4D,4 | 
[V:1] d4c4 | 
[V:2] z8 | 
[V:3] f2e2a4 | 
[V:4] z8 | 
[V:5] A,8 | 
[V:1] d6cB | 
[V:2] z8 | 
[V:3] d2g3fed | 
[V:4] G8 | 
[V:5] _B,8 | 
[V:1] c4A2c2- | 
[V:2] z8 | 
[V:3] f2e2c4- | 
[V:4] A4A4 | 
[V:5] A,8 | 
[V:1] c2BAG2A2- | 
[V:2] z8 | 
[V:3] c8 | 
[V:4] e8 | 
[V:5] z8 | 
[V:1] A2D2A4 | 
[V:2] z8 | 
[V:3] d3cA2d2 | 
[V:4] f8 | 
[V:5] D,8 | 
[V:1] G6FE | 
[V:2] z8 | 
[V:3] B2c2B2c2 | 
[V:4] e8 | 
[V:5] E,4E,4 | 
[V:1] G2F2D4 | 
[V:2] z8 | 
[V:3] G8 | 
[V:4] z8 | 
[V:5] B,8 | 
[V:1] C4G2A2 | 
[V:2] z8 | 
[V:3] e8 | 
[V:4] z8 | 
[V:5] C8 | 
[V:1] B6c2- | 
[V:2] z8 | 
[V:3] d4e4 | 
[V:4] G8 | 
[V:5] B,4E,4 | 
[V:1] c2BAc3B | 
[V:2] z8 | 
[V:3] c6BA | 
[V:4] A4A4 | 
[V:5] F,4F,4 | 
[V:1] G8 | 
[V:2] z8 | 
[V:3] c2B2G4 | 
[V:4] e8 | 
[V:5] E,2G,3F,E,2- | 
[V:1] A8 | 
[V:2] z8 | 
[V:3] z4d4 | 
[V:4] f8 | 
[V:5] E,2D,C,D,4 | 
[V:1] z4G4 | 
[V:2] z8 | 
[V:3] B2g3fe2- | 
[V:4] e8 | 
[V:5] E,8 | 
[V:1] A4A4 | 
[V:2] z8 | 
[V:3] e2dcd2A2 | 
[V:4] f4f4 | 
[V:5] z8 | 
[V:1] e8 | 
[V:2] z8 | 
[V:3] c8 | 
[V:4] e2g3fe2- | 
[V:5] z8 | 
[V:1] f8 | 
[V:2] z8 | 
[V:3] F8 | 
[V:4] e2dcd2A2- | 
[V:5] z4D,4 | 
[V:1] e8 | 
[V:2] z8 | 
[V:3] c6B2 | 
[V:4] ABcde2g2 | 
[V:5] A,6G,2 | 
[V:1] z8 | 
[V:2] z8 | 
[V:3] c4B4 | 
[V:4] f2e3dg2 | 
[V:5] A,4G,4 | 
[V:1] z8 | 
[V:2] z8 | 
[V:3] c4A4 | 
[V:4] f2e4d2 | 
[V:5] A,4F,4 | 
[V:1] G8 | 
[V:2] z8 | 
[V:3] B2e2d2e2 | 
[V:4] e2c2B4 | 
[V:5] E,4z2E,2 | 
[V:1] A4A4 | 
[V:2] z8 | 
[V:3] c3BAGA2- | 
[V:4] A3GABc2- | 
[V:5] F,E,F,G,F,2E,D, | 
[V:1] e8 | 
[V:2] z8 | 
[V:3] A2GFE4 | 
[V:4] c2BAG4 | 
[V:5] C,2D,4^C,2 | 
[V:1] f8 | 
[V:2] z8 | 
[V:3] DEFGABcd | 
[V:4] F4D4 | 
[V:5] D,8 | 
[V:1] e8 | 
[V:2] z8 | 
[V:3] e2d4^c2 | 
[V:4] A4z2e2 | 
[V:5] A,,8 | 
[V:1] z8 | 
[V:2] z8 | 
[V:3] d8 | 
[V:4] fefgf2ed | 
[V:5] z4D,4 | 
[V:1] G8 | 
[V:2] z8 | 
[V:3] z4e4 | 
[V:4] c2d4^c2 | 
[V:5] E,4E,4 | 
[V:1] A4A4 | 
[V:2] z8 | 
[V:3] fefgf2ed | 
[V:4] d2A2d2c2- | 
[V:5] D,4F,4 | 
[V:1] e8 | 
[V:2] z8 | 
[V:3] c2d4^c2 | 
[V:4] c2B2G4 | 
[V:5] E,4E,4 | 
[V:1] f8 | 
[V:2] z8 | 
[V:3] d8 | 
[V:4] z2A2B2d2 | 
[V:5] D,4z2D,2 | 
[V:1] e8 | 
[V:2] z8 | 
[V:3] [M:2/1]z4c4 | 
[V:4] c2BAe2A2- | 
[V:5] A,4A,,4 | 
[V:1] A3Bc2d2- | 
[V:2] z8 | 
[V:3] d2d2a4 | 
[V:4] A2f4ed | 
[V:5] D,4z2D,2 | 
[V:1] dcdef2d2 | 
[V:2] z8 | 
[V:3] _b4a4 | 
[V:4] d4z2d2 | 
[V:5] G,4D,4 | 
[V:1] e4d4 | 
[V:2] z8 | 
[V:3] z2c2d2d2 | 
[V:4] c2A4G2 | 
[V:5] A,2A,,2B,,4 | 
[V:1] z2c2d3e | 
[V:2] z8 | 
[V:3] a4_b4 | 
[V:4] A4G3F | 
[V:5] A,,4z4 | 
[V:1] f2e2d2e2- | 
[V:2] z8 | 
[V:3] a4z2c2 | 
[V:4] D2A2D2A2- | 
[V:5] z2A,,2B,,2A,,2 | 
[V:1] edd4^c2 | 
[V:2] z8 | 
[V:3] d2d2a4 | 
[V:4] A2D2F2E2 | 
[V:5] B,,4A,,4 | 
[V:1] d4c4 | 
[V:2] z8 | 
[V:3] _b4a2A2 | 
[V:4] G4z4 | 
[V:5] [M:2/1]z2G,,2A,,2A,,2 | 
[V:1] B2c3BA2 | 
[V:2] z8 | 
[V:3] B2e2c2d2 | 
[V:4] [M:2/1]G4A2A2 | 
[V:5] E,4F,4 | 
[V:1] G4z2d2 | 
[V:2] z8 | 
[V:3] B2e4d2 | 
[V:4] e4f4 | 
[V:5] E,2C,2D,2D,2 | 
[V:1] c2A4G2 | 
[V:2] z8 | 
[V:3] e2c2d2e2 | 
[V:4] e4z2E2 | 
[V:5] A,4_B,4 | 
[V:1] A2c3BAG | 
[V:2] z8 | 
[V:3] c2A3GA2 | 
[V:4] F2F2c4 | 
[V:5] A,4z2A,,2 | 
[V:1] F2G3FF2- | 
[V:2] z8 | 
[V:3] D2_B4A2 | 
[V:4] d4c4 | 
[V:5] _B,,2B,,2F,4 | 
[V:1] F2E2F2A2- | 
[V:2] z8 | 
[V:3] _B2c2A2F2 | 
[V:4] z2C2D2D2 | 
[V:5] G,4F,4 | 
[V:1] AGFED2G2 | 
[V:2] z8 | 
[V:3] c4z2G2 | 
[V:4] A4B4 | 
[V:5] z2F,,2G,,2G,,2 | 
[V:1] F2A2(3G2E2G2 | 
[V:2] z8 | 
[V:3] A2A2e4 | 
[V:4] A4z2C2 | 
[V:5] D,4E,4 | 
[V:1] (3F3ED2C4 | 
[V:2] z8 | 
[V:3] f4e4 | 
[V:4] D2D2A4 | 
[V:5] D,4z2A,,2 | 
[V:1] G4F2A2 | 
[V:2] z8 | 
[V:3] z2G2A2A2 | 
[V:4] B4A4 | 
[V:5] E,4F,4 | 
[V:1] G2E4D2 | 
[V:2] z8 | 
[V:3] e4f4 | 
[V:4] z2C2D2D2 | 
[V:5] E,2G,2F,2A,2- | 
[V:1] E2A4G2 | 
[V:2] z8 | 
[V:3] e8- | 
[V:4] A4B4 | 
[V:5] A,2A,,2E,4 | 
[V:1] A2G2A2c2- | 
[V:2] z8 | 
[V:3] e8- | 
[V:4] A2B2c4 | 
[V:5] z2E,2A,4 | 
[V:1] cBG2A2B2 | 
[V:2] z8 | 
[V:3] e8- | 
[V:4] z2B2c2B2 | 
[V:5] z2E,2A,2G,2 | 
[V:1] E2A4^G2 | 
[V:2] z8 | 
[V:3] e8- | 
[V:4] c2A2B4 | 
[V:5] A,4E,4 | 
[V:1] A8 |]  
[V:2] z8 |]  
[V:3] e8 |]  
[V:4] A8 |]  
[V:5] A,,8 |]  



